X:1
T:In the Silence of the Night
T:In the Silence of the Night
T:Polish Carol
T:Public Domain Courtesy of the Cyber Hymnal™
C:Polish Carol
Z:Public Domain
Z:Courtesy of the Cyber Hymnal™
%%score ( 1 2 ) ( 3 4 )
L:1/8
Q:1/4=115
M:4/4
K:Bb
V:1 treble 
V:2 treble 
V:3 bass 
V:4 bass 
V:1
"^Majestic" [DB]4 (c2 A2) | [DB]4 [EF]4 | [Fd]2 [Fd]2 [Ee]2 [Ec]2 | [Dd]6 z2 | [DB]4 (c2 A2) | %5
w: 1.~In the *|si- lence|of that night so|bright,|Came the *|
 [DB]4 [EF]4 | [Fd]2 [Fd]2 [Ee]2 [Ec]2 | [Dd]6 z2 | [DB]2 [Fd]2 [DB]2 [Fd]2 | %9
w: song of|an- gels from the|height;|Come, O shep- herds,|
 [Fe]2 [Ec]2 [EA]2 [FG]2 | [DB]2 [Fd]2 f4 [Fd]2 | f8 [Ec]2 [EA]2 [EF]2 | [FBf]2 [GB]2 [Gc]2 [EA]2 | %13
w: rise and fol- low|To the stall where|Je- sus lies And|greet you there your|
 [DB]6 z2 |] %14
w: Lord.|
V:2
 x4 E4 | x8 | x8 | x8 | x4 D4 | x8 | x8 | x8 | x8 | x8 | x4 [FB]2 x4 | [Ae]2 x12 | x8 | x8 |] %14
V:3
 [B,,B,]4 (A,2 C2) | [B,,B,]4 [B,,C]4 | [B,,B,]2 [B,,B,]2 [B,,G,]2 [B,,G,]2 | [B,,F,]6 z2 | %4
 [B,,B,]4 (A,2 C2) | [B,,B,]4 [B,,C]4 | [B,,B,]2 [B,,B,]2 [B,,G,]2 [B,,_G,]2 | [B,,F,]6 z2 | %8
 [B,,F,]2 [B,,B,]2 [B,,F,]2 [B,,B,]2 | [F,A,]2 [F,A,]2 [F,C]2 [F,A,]2 | %10
 [B,,F,]2 [B,,B,]2 [B,D]2 [B,D]2 x2 | [F,C]2 [F,A,]2 [F,C]2 [F,A,]2 x6 | %12
 [B,C]2 [G,D]2 [E,E]2 [F,C]2 | [B,,B,]6 z2 |] %14
V:4
 x4 B,,4 | x8 | x8 | x8 | x4 B,,4 | x8 | x8 | x8 | x8 | x8 | x10 | x14 | x8 | x8 |] %14

